X: 1
T: Bourr\'ee d'Aurore Sand
R: bourree
S: Handout at 2014 NEFFA
Z: 2015 John Chambers <jc:trillian.mit.edu>
M: 2/4
L: 1/8
K: Em
B |:\
"Em"E>F GA | "Em"B3 B | "Em"B>e "(D)"de | "Em"B3B |\
"Am"c>B "D"AF | "Em"G>F "C"EG | "D"FE FG |1 "Em"E3 G/F/ :|2 "Em"E4 ||
|:\
"G"B>A "D"GA | "G"B>A "D"GA | "G"B>A "D"Bc | "G"BA"D"GA |\
"G"B>A "D"GA | "G"B>A Bc | "G"BA "D"GF | "Em"E4 :|
